assets/images/donate/payments/paystack.svg

<svg width="211" height="41" viewBox="0 0 211 41" fill="none" xmlns="http://www.w3.org/2000/svg">
<path fill-rule="evenodd" clip-rule="evenodd" d="M2.6595 0.5H37.267C38.4593 0.5 39.4291 1.4589 39.4291 2.64606V6.45624C39.4291 7.63835 38.4594 8.60256 37.267 8.60256H2.6595C1.46714 8.60256 0.5 7.63843 0.5 6.45624V2.64606C0.5 1.4589 1.46714 0.5 2.6595 0.5ZM2.6595 21.7686H37.267C38.4593 21.7686 39.4291 22.7299 39.4291 23.9121V27.7275C39.4291 28.9096 38.4594 29.8685 37.267 29.8685H2.6595C1.46714 29.8685 0.5 28.9096 0.5 27.7275V23.9121C0.5 22.7299 1.46714 21.7686 2.6595 21.7686ZM22.1251 32.4027H2.6595C1.46714 32.4027 0.5 33.3616 0.5 34.5464V38.3592C0.5 39.5415 1.46714 40.5027 2.6595 40.5027H22.1253C23.3227 40.5027 24.2873 39.5415 24.2873 38.3592V34.5464C24.2873 33.3616 23.3227 32.4027 22.1251 32.4027ZM2.6595 11.1317H39.4291C40.624 11.1317 41.5884 12.0932 41.5884 13.2777V17.0907C41.5884 18.2728 40.624 19.2367 39.4291 19.2367H2.6595C1.46714 19.2367 0.5 18.2728 0.5 17.0907V13.2777C0.5 12.0932 1.46714 11.1317 2.6595 11.1317Z" fill="white"/>
<path fill-rule="evenodd" clip-rule="evenodd" d="M210.278 27.2881L204.285 18.5591L209.413 11.8531C209.682 11.4665 209.751 11.0959 209.628 10.7477C209.538 10.4969 209.296 10.1941 208.675 10.1941H204.621C204.392 10.1941 204.168 10.2507 203.953 10.3546C203.723 10.4541 203.516 10.6576 203.359 10.9241L199.261 16.6085H198.263V3.17606C198.263 2.89122 198.166 2.65619 197.981 2.45499C197.793 2.2719 197.543 2.16802 197.263 2.16802H193.47C193.193 2.16802 192.948 2.27199 192.745 2.45277C192.54 2.64722 192.432 2.88234 192.432 3.17606V27.973C192.432 28.2576 192.54 28.5063 192.745 28.6918C192.948 28.8838 193.193 28.9787 193.47 28.9787H197.263C197.543 28.9787 197.793 28.8838 197.981 28.6872C198.166 28.4972 198.263 28.2576 198.263 27.973V21.4049H199.361L203.836 28.1968C204.153 28.7165 204.595 28.9788 205.145 28.9788H209.391C210.035 28.9788 210.303 28.6761 210.411 28.4182C210.565 28.0543 210.519 27.6881 210.278 27.2881ZM147.707 23.1023C148.049 23.1203 148.339 23.3034 148.547 23.638L149.864 25.7492C150.217 26.3029 150.166 26.8589 149.733 27.363C149.08 28.0455 148.259 28.5563 147.281 28.8932C146.302 29.2254 145.262 29.3948 144.167 29.3948C143.38 29.3948 142.578 29.282 141.794 29.0468C141.009 28.8162 140.31 28.4478 139.714 27.9686C139.117 27.4894 138.624 26.8499 138.25 26.0903C137.876 25.3218 137.681 24.3884 137.681 23.3036V15.1826H135.494C135.206 15.1826 134.961 15.0739 134.769 14.848C134.589 14.6356 134.49 14.3938 134.49 14.1382V11.2406C134.49 10.9581 134.589 10.7163 134.769 10.515C134.965 10.3004 135.206 10.1942 135.494 10.1942H137.681V5.54507C137.681 5.23768 137.796 4.97982 137.994 4.79229C138.201 4.60015 138.446 4.50746 138.723 4.50746H142.553C142.805 4.50746 143.037 4.60015 143.247 4.79229C143.454 4.97992 143.553 5.23768 143.553 5.54507V10.1942H148.484C148.767 10.1942 149.013 10.3004 149.233 10.4969C149.454 10.7028 149.56 10.9581 149.56 11.2406V14.1382C149.56 14.3983 149.454 14.6402 149.24 14.857C149.02 15.0739 148.767 15.1826 148.484 15.1826H143.553V22.0152C143.553 22.4378 143.611 22.7722 143.722 23.0208C143.836 23.2651 143.967 23.4571 144.129 23.586C144.289 23.7147 144.469 23.8099 144.645 23.846C144.841 23.8958 145.023 23.9139 145.181 23.9139C145.365 23.9139 145.59 23.8866 145.858 23.8099C146.131 23.7375 146.417 23.6064 146.727 23.4164C147.052 23.1973 147.387 23.0843 147.707 23.1023ZM131.984 19.0926C131.457 18.6315 130.825 18.2562 130.122 17.9761C129.42 17.6959 128.672 17.4743 127.888 17.3252L125 16.7577C124.259 16.62 123.743 16.4323 123.453 16.195C123.194 15.9893 123.066 15.752 123.066 15.4604C123.066 15.1553 123.248 14.9022 123.604 14.6783C123.995 14.439 124.541 14.3167 125.216 14.3167C125.961 14.3167 126.691 14.4636 127.373 14.7529C128.064 15.0469 128.713 15.3813 129.278 15.7543C130.12 16.2696 130.834 16.2017 131.349 15.6051L132.736 14.0206C133.02 13.7086 133.169 13.3696 133.169 13.0307C133.169 12.6758 132.988 12.3503 132.642 12.0542C132.054 11.5456 131.124 11.0055 129.879 10.4789C128.634 9.94321 127.067 9.67196 125.216 9.67196C124.002 9.67196 122.881 9.8348 121.89 10.1511C120.893 10.4721 120.039 10.915 119.348 11.4665C118.65 12.0316 118.101 12.6892 117.725 13.4465C117.353 14.1968 117.16 15.0196 117.16 15.8763C117.16 17.4335 117.637 18.7014 118.572 19.6486C119.506 20.573 120.753 21.2034 122.286 21.5109L125.288 22.1552C126.141 22.3245 126.79 22.5191 127.211 22.736C127.576 22.9214 127.751 23.1881 127.751 23.5609C127.751 23.8956 127.576 24.1916 127.215 24.4605C126.837 24.7498 126.24 24.8922 125.445 24.8922C124.579 24.8922 123.788 24.7135 123.077 24.3655C122.363 24.0153 121.715 23.5924 121.145 23.0931C120.877 22.8807 120.582 22.7224 120.274 22.6207C119.913 22.5167 119.51 22.6274 119.044 22.9847L117.385 24.2618C116.903 24.6639 116.7 25.1498 116.79 25.7104C116.872 26.2485 117.331 26.8044 118.189 27.435C118.954 27.9684 119.936 28.4542 121.118 28.8701C122.3 29.2905 123.685 29.5053 125.256 29.5053C126.52 29.5053 127.688 29.345 128.715 29.0285C129.749 28.6984 130.654 28.2576 131.394 27.6926C132.142 27.1252 132.723 26.4292 133.128 25.638C133.531 24.8471 133.729 23.9813 133.729 23.075C133.729 22.1913 133.576 21.4116 133.259 20.756C132.943 20.1074 132.515 19.5469 131.984 19.0926ZM70.9306 12.3571C70.0885 11.5006 69.1045 10.8247 68.0057 10.3636C66.9047 9.90249 65.7294 9.67199 64.5093 9.67199C63.2326 9.67199 62.0931 9.90932 61.1272 10.3907C60.3754 10.7591 59.7381 11.2271 59.2428 11.7718V11.2406C59.2428 10.9581 59.1414 10.7163 58.9614 10.5151C58.7653 10.3004 58.5245 10.1942 58.2361 10.1942H54.4898C54.1969 10.1942 53.9537 10.3004 53.7672 10.5151C53.5801 10.7163 53.4833 10.9581 53.4833 11.2406V36.1529C53.4833 36.4332 53.5801 36.6773 53.7692 36.8718C53.9628 37.0613 54.1969 37.1563 54.4897 37.1563H58.3105C58.5695 37.1563 58.8015 37.0613 59.004 36.8718C59.2111 36.6817 59.3148 36.44 59.3148 36.1529V27.6499C59.8258 28.2149 60.506 28.6466 61.3165 28.9428C62.3386 29.3224 63.3879 29.5054 64.4282 29.5054C65.6553 29.5054 66.8439 29.2773 67.9652 28.8162C69.0935 28.3438 70.0885 27.6703 70.9306 26.8047C71.7727 25.941 72.4528 24.879 72.9412 23.6719C73.4456 22.4515 73.6889 21.0726 73.6889 19.5697C73.6889 18.0712 73.4456 16.6901 72.9412 15.4697C72.4526 14.2603 71.7727 13.2069 70.9306 12.3571ZM67.5014 21.3574C67.2876 21.8885 66.9858 22.3699 66.6031 22.7722C66.2248 23.1747 65.7746 23.5023 65.2657 23.7239C64.7567 23.9522 64.1849 24.0675 63.5702 24.0675C62.9758 24.0675 62.4062 23.9453 61.8883 23.7239C61.366 23.5023 60.902 23.1747 60.5102 22.7722C60.123 22.3699 59.8145 21.8886 59.6007 21.3574C59.3866 20.8171 59.2742 20.2316 59.2742 19.6079C59.2742 18.9841 59.3866 18.3988 59.6007 17.8539C59.8145 17.3252 60.123 16.8529 60.5102 16.4595C60.902 16.0618 61.366 15.7452 61.8905 15.5057C62.4152 15.2683 62.9758 15.1463 63.5702 15.1463C64.1848 15.1463 64.7499 15.2683 65.2609 15.5057C65.7745 15.7452 66.2247 16.0619 66.6098 16.4548C66.9857 16.8527 67.2875 17.3252 67.5014 17.8539C67.7154 18.3988 67.8209 18.9841 67.8209 19.6079C67.821 20.2316 67.7155 20.8171 67.5014 21.3574ZM94.1983 10.194H90.4112C90.1545 10.194 89.9113 10.3003 89.7109 10.4992C89.5105 10.7117 89.4046 10.958 89.4046 11.2406V11.6994C88.9792 11.1863 88.4003 10.7477 87.689 10.3907C86.7342 9.90932 85.6153 9.67199 84.368 9.67199C83.1656 9.67199 81.9856 9.90249 80.8689 10.3636C79.7432 10.8247 78.7323 11.4914 77.8655 12.3504C77.0007 13.2069 76.2982 14.2557 75.7738 15.4696C75.2538 16.681 74.9902 18.0665 74.9902 19.5696C74.9902 21.0724 75.2538 22.4514 75.7738 23.6719C76.2983 24.8788 76.9917 25.941 77.8473 26.8045C78.7032 27.6701 79.7072 28.3438 80.8306 28.8161C81.9499 29.277 83.1295 29.5054 84.3319 29.5054C85.5772 29.5054 86.705 29.2637 87.671 28.7891C88.3848 28.4295 88.97 27.9912 89.4048 27.4803V27.9732C89.4048 28.2578 89.5106 28.5066 89.7178 28.6919C89.9205 28.8841 90.1546 28.9788 90.4112 28.9788H94.1983C94.4843 28.9788 94.723 28.8841 94.9119 28.6874C95.1033 28.4975 95.2025 28.2578 95.2025 27.9732V11.2406C95.2025 10.958 95.1056 10.7163 94.9189 10.515C94.732 10.3004 94.4843 10.194 94.1983 10.194ZM89.0849 21.3349C88.8712 21.8885 88.5695 22.3609 88.1958 22.7541C87.8129 23.1518 87.3558 23.4684 86.849 23.708C86.3425 23.9453 85.766 24.0673 85.1515 24.0673C84.5616 24.0673 83.9943 23.9453 83.4739 23.708C82.9518 23.4684 82.4969 23.1518 82.112 22.7541C81.7359 22.3699 81.434 21.8885 81.2202 21.3349C81.0086 20.7854 80.9005 20.2024 80.9005 19.6079C80.9005 18.9841 81.0086 18.3988 81.2202 17.8539C81.434 17.3206 81.7359 16.8436 82.112 16.4548C82.4969 16.0618 82.9498 15.7452 83.4739 15.5057C83.9943 15.2683 84.5616 15.1463 85.1515 15.1463C85.766 15.1463 86.3426 15.2683 86.849 15.5057C87.3558 15.7452 87.8128 16.0619 88.1958 16.4548C88.5695 16.8527 88.8712 17.3252 89.0849 17.8539C89.299 18.3988 89.4046 18.9841 89.4046 19.6079C89.4046 20.2024 89.2989 20.7855 89.0849 21.3349ZM165.519 10.194H169.304C169.597 10.194 169.84 10.3004 170.027 10.515C170.213 10.7163 170.31 10.958 170.31 11.2406V27.9732C170.31 28.2578 170.209 28.4975 170.022 28.6874C169.826 28.8841 169.588 28.9788 169.304 28.9788H165.519C165.26 28.9788 165.03 28.8841 164.828 28.6919C164.621 28.5066 164.519 28.2578 164.519 27.9732V27.4803C164.078 27.9912 163.501 28.4295 162.777 28.7891C161.813 29.2637 160.687 29.5054 159.431 29.5054C158.235 29.5054 157.06 29.277 155.938 28.8161C154.815 28.3438 153.808 27.6701 152.957 26.8045C152.1 25.941 151.406 24.8788 150.884 23.6719C150.361 22.4514 150.098 21.0724 150.098 19.5696C150.098 18.0665 150.361 16.681 150.884 15.4696C151.406 14.2557 152.109 13.2069 152.975 12.3504C153.842 11.4914 154.853 10.8247 155.979 10.3636C157.096 9.90249 158.276 9.67199 159.471 9.67199C160.728 9.67199 161.842 9.90932 162.797 10.3907C163.508 10.7477 164.085 11.1863 164.519 11.6994V11.2406C164.519 10.958 164.621 10.7117 164.823 10.4992C165.03 10.3003 165.26 10.194 165.519 10.194ZM163.294 22.7541C163.677 22.3609 163.979 21.8885 164.191 21.3349C164.407 20.7855 164.519 20.2024 164.519 19.6079C164.519 18.9841 164.407 18.3988 164.191 17.8539C163.979 17.3252 163.677 16.8527 163.294 16.4548C162.919 16.0619 162.466 15.7452 161.951 15.5057C161.441 15.2683 160.879 15.1463 160.259 15.1463C159.669 15.1463 159.107 15.2683 158.584 15.5057C158.064 15.7452 157.605 16.0618 157.222 16.4548C156.846 16.8436 156.544 17.3206 156.328 17.8539C156.114 18.3988 156.009 18.9841 156.009 19.6079C156.009 20.2024 156.114 20.7854 156.328 21.3349C156.544 21.8885 156.846 22.3699 157.222 22.7541C157.605 23.1518 158.064 23.4684 158.584 23.708C159.107 23.9453 159.669 24.0673 160.259 24.0673C160.879 24.0673 161.441 23.9453 161.951 23.708C162.466 23.4684 162.919 23.1518 163.294 22.7541ZM187.936 21.7416L190.108 23.3894C190.368 23.5927 190.554 23.8459 190.669 24.1489C190.786 24.4696 190.764 24.8021 190.579 25.1365C189.782 26.4068 188.654 27.4578 187.213 28.2715C185.777 29.092 184.059 29.5054 182.131 29.5054C180.738 29.5054 179.405 29.2478 178.191 28.7392C176.964 28.2262 175.885 27.5166 174.985 26.6351C174.077 25.7559 173.364 24.6981 172.857 23.5023C172.346 22.2955 172.08 20.9823 172.08 19.608C172.08 18.2294 172.346 16.9139 172.857 15.7002C173.364 14.4796 174.077 13.4241 174.985 12.5404C175.885 11.6544 176.964 10.9514 178.191 10.4405C179.405 9.93212 180.738 9.67214 182.131 9.67214C184.059 9.67214 185.777 10.088 187.213 10.8994C188.654 11.7222 189.782 12.771 190.572 14.0298C190.764 14.3688 190.786 14.7078 190.669 15.0424C190.554 15.3679 190.358 15.6119 190.097 15.7882L187.927 17.4382C187.521 17.7636 187.132 17.8539 186.785 17.7186C186.477 17.5919 186.216 17.4022 185.995 17.149C185.457 16.5137 184.896 16.0141 184.331 15.6638C183.775 15.3226 183.066 15.1463 182.217 15.1463C181.593 15.1463 181.021 15.2683 180.517 15.5057C180.001 15.7452 179.551 16.0618 179.173 16.4548C178.79 16.8436 178.495 17.3206 178.294 17.8539C178.092 18.392 177.993 18.9751 177.993 19.6079C177.993 20.2069 178.092 20.779 178.294 21.3211C178.502 21.8523 178.797 22.3338 179.173 22.7361C179.555 23.1477 180.001 23.4617 180.51 23.6877C181.021 23.9139 181.593 24.0268 182.217 24.0268C183.065 24.0268 183.784 23.855 184.331 23.516C184.896 23.1656 185.457 22.6638 185.99 22.0309C186.215 21.7778 186.477 21.5856 186.785 21.4613C187.125 21.3211 187.522 21.4116 187.936 21.7416ZM111.499 10.1941H115.741C116.318 10.1941 116.565 10.4563 116.671 10.6778C116.8 10.9693 116.8 11.3264 116.658 11.7581L110.426 31.9147C109.869 33.6845 108.955 35.1041 107.717 36.146C106.47 37.1971 104.849 37.7168 102.908 37.7168C101.759 37.7168 100.679 37.5474 99.7013 37.2014C98.713 36.8533 97.8753 36.3674 97.2068 35.7437C96.8532 35.4362 96.5469 34.8825 97.0986 34.035L98.4473 32.0707C98.7063 31.6753 99.0259 31.4718 99.3975 31.4718H99.4426C99.7913 31.4877 100.114 31.5938 100.397 31.7904C100.692 32.0141 101.025 32.2042 101.394 32.3736C101.759 32.534 102.135 32.6199 102.532 32.6199C103.013 32.6199 103.423 32.4843 103.79 32.2109C104.155 31.942 104.436 31.5395 104.617 31.0265L105.159 29.5053L105.346 28.9787H103.076C102.745 28.9787 102.477 28.8838 102.275 28.6916C102.088 28.5201 101.948 28.3029 101.861 28.0452L96.4885 11.758C96.378 11.3898 96.378 11.0325 96.495 10.7296C96.6279 10.3748 96.9859 10.194 97.5553 10.194H101.948C102.263 10.194 102.522 10.316 102.703 10.5399C102.853 10.7431 102.966 10.9738 103.022 11.2269L106.388 22.7971H107.154L110.281 11.2224C110.34 10.9693 110.466 10.7297 110.653 10.5307C110.853 10.3161 111.144 10.1941 111.499 10.1941Z" fill="white"/>
</svg>

<svg width="211" height="41" fill="none" xmlns="http://www.w3.org/2000/svg"><path fill-rule="evenodd" clip-rule="evenodd" d="M2.66.5h34.607c1.192 0 2.162.959 2.162 2.146v3.81c0 1.182-.97 2.147-2.162 2.147H2.659A2.155 2.155 0 0 1 .5 6.456v-3.81C.5 1.46 1.467.5 2.66.5zm0 21.269h34.607c1.192 0 2.162.96 2.162 2.143v3.816c0 1.182-.97 2.14-2.162 2.14H2.659A2.15 2.15 0 0 1 .5 27.729v-3.816c0-1.182.967-2.143 2.16-2.143zm19.465 10.634H2.66c-1.193 0-2.16.959-2.16 2.143v3.813c0 1.182.967 2.144 2.16 2.144h19.465a2.152 2.152 0 0 0 2.162-2.144v-3.813a2.15 2.15 0 0 0-2.162-2.143zM2.66 11.132h36.77c1.194 0 2.158.961 2.158 2.146v3.813a2.153 2.153 0 0 1-2.159 2.146H2.66A2.155 2.155 0 0 1 .5 17.09v-3.813c0-1.185.967-2.146 2.16-2.146zm207.618 16.156l-5.993-8.729 5.128-6.706c.269-.386.338-.757.215-1.105-.09-.251-.332-.554-.953-.554h-4.054c-.229 0-.453.057-.668.16-.23.1-.437.304-.594.57l-4.098 5.684h-.998V3.176c0-.285-.097-.52-.282-.721a1.014 1.014 0 0 0-.718-.287h-3.793c-.277 0-.522.104-.725.285a.952.952 0 0 0-.313.723v24.797c0 .285.108.533.313.719.203.192.448.287.725.287h3.793c.28 0 .53-.095.718-.292a.989.989 0 0 0 .282-.714v-6.568h1.098l4.475 6.792c.317.52.759.782 1.309.782h4.246c.644 0 .912-.303 1.02-.56.154-.365.108-.73-.133-1.13zm-62.571-4.186c.342.018.632.201.84.536l1.317 2.111c.353.554.302 1.11-.131 1.614-.653.683-1.474 1.193-2.452 1.53a9.636 9.636 0 0 1-3.114.502 8.267 8.267 0 0 1-2.373-.348 6.002 6.002 0 0 1-2.08-1.078c-.597-.48-1.09-1.12-1.464-1.879-.374-.768-.569-1.702-.569-2.786v-8.121h-2.187a.912.912 0 0 1-.725-.335 1.091 1.091 0 0 1-.279-.71v-2.897c0-.283.099-.525.279-.726a.941.941 0 0 1 .725-.32h2.187v-4.65c0-.307.115-.565.313-.753.207-.192.452-.285.729-.285h3.83c.252 0 .484.093.694.285.207.188.306.446.306.753v4.65h4.931c.283 0 .529.105.749.302a.987.987 0 0 1 .327.744v2.897c0 .26-.106.502-.32.719a1.05 1.05 0 0 1-.756.326h-4.931v6.832c0 .423.058.757.169 1.006.114.244.245.436.407.565.16.129.34.224.516.26a2.18 2.18 0 0 0 1.213-.036c.273-.072.559-.204.869-.394.325-.219.66-.332.98-.314zm-15.723-4.01a6.437 6.437 0 0 0-1.862-1.116c-.702-.28-1.45-.502-2.234-.65L125 16.757c-.741-.138-1.257-.326-1.547-.563-.259-.206-.387-.443-.387-.735 0-.305.182-.558.538-.782.391-.239.937-.361 1.612-.361.745 0 1.475.147 2.157.436.691.294 1.34.628 1.905 1.001.842.516 1.556.448 2.071-.149l1.387-1.584c.284-.312.433-.651.433-.99 0-.355-.181-.68-.527-.977-.588-.508-1.518-1.049-2.763-1.575-1.245-.536-2.812-.807-4.663-.807-1.214 0-2.335.163-3.326.48-.997.32-1.851.763-2.542 1.315-.698.565-1.247 1.222-1.623 1.98a5.44 5.44 0 0 0-.565 2.43c0 1.556.477 2.824 1.412 3.772.934.924 2.181 1.554 3.714 1.862l3.002.644c.853.17 1.502.364 1.923.581.365.185.54.452.54.825 0 .335-.175.63-.536.9-.378.289-.975.431-1.77.431a5.321 5.321 0 0 1-2.368-.526 8.793 8.793 0 0 1-1.932-1.273 2.833 2.833 0 0 0-.871-.472c-.361-.104-.764.006-1.23.364l-1.659 1.277c-.482.402-.685.888-.595 1.448.082.538.541 1.094 1.399 1.725.765.533 1.747 1.02 2.929 1.435 1.182.42 2.567.635 4.138.635 1.264 0 2.432-.16 3.459-.476 1.034-.33 1.939-.771 2.679-1.336a6.003 6.003 0 0 0 1.734-2.055c.403-.79.601-1.657.601-2.563 0-.884-.153-1.663-.47-2.319a5.123 5.123 0 0 0-1.275-1.663zm-61.053-6.735a8.95 8.95 0 0 0-2.925-1.993 8.995 8.995 0 0 0-3.497-.692c-1.276 0-2.416.237-3.382.719-.752.368-1.389.836-1.884 1.38v-.53a1.06 1.06 0 0 0-.282-.726.941.941 0 0 0-.725-.32H54.49a.915.915 0 0 0-.723.32 1.03 1.03 0 0 0-.284.726v24.912a1 1 0 0 0 .286.719.98.98 0 0 0 .72.284h3.822a.988.988 0 0 0 .693-.284.937.937 0 0 0 .31-.72V27.65c.512.565 1.192.997 2.002 1.293a8.916 8.916 0 0 0 3.112.562 9.243 9.243 0 0 0 3.537-.689 8.896 8.896 0 0 0 2.966-2.011c.842-.864 1.522-1.926 2.01-3.133.505-1.22.748-2.6.748-4.102 0-1.499-.243-2.88-.748-4.1-.488-1.21-1.168-2.263-2.01-3.113zm-3.43 9a4.463 4.463 0 0 1-.898 1.415c-.378.403-.828.73-1.337.952a4.12 4.12 0 0 1-1.696.343 4.234 4.234 0 0 1-3.06-1.295 4.415 4.415 0 0 1-.91-1.415 4.717 4.717 0 0 1-.326-1.75c0-.623.113-1.208.327-1.753a4.256 4.256 0 0 1 .91-1.395 4.602 4.602 0 0 1 1.38-.953 4.032 4.032 0 0 1 1.68-.36c.614 0 1.179.122 1.69.36.514.24.964.556 1.349.949.376.398.677.87.891 1.399.214.545.32 1.13.32 1.754 0 .624-.105 1.21-.32 1.75zm26.697-11.163h-3.787c-.257 0-.5.106-.7.305-.2.213-.306.459-.306.742v.458c-.426-.513-1.005-.951-1.716-1.308-.955-.482-2.074-.719-3.321-.719a9.13 9.13 0 0 0-3.5.692 9.195 9.195 0 0 0-3.002 1.986c-.865.857-1.568 1.906-2.092 3.12-.52 1.211-.784 2.597-.784 4.1 0 1.502.264 2.881.784 4.102.524 1.207 1.218 2.269 2.073 3.133a9.162 9.162 0 0 0 2.984 2.011c1.119.461 2.298.69 3.5.69 1.246 0 2.374-.242 3.34-.717.714-.36 1.299-.798 1.734-1.309v.493c0 .285.106.534.313.719a.984.984 0 0 0 .693.287h3.787a.946.946 0 0 0 .714-.292.97.97 0 0 0 .29-.714V11.241c0-.283-.096-.525-.283-.726a.922.922 0 0 0-.72-.321zm-5.113 11.14a4.274 4.274 0 0 1-.89 1.42c-.382.398-.84.714-1.346.954a3.988 3.988 0 0 1-1.698.36c-.59 0-1.157-.123-1.677-.36a4.465 4.465 0 0 1-1.362-.954 4.155 4.155 0 0 1-.892-1.42 4.795 4.795 0 0 1-.32-1.726c0-.624.109-1.21.32-1.754.214-.533.516-1.01.892-1.4.385-.392.838-.709 1.362-.948a4.023 4.023 0 0 1 1.677-.36c.615 0 1.192.122 1.698.36.507.24.964.556 1.347.949.374.398.675.87.889 1.399.214.545.32 1.13.32 1.754 0 .594-.106 1.177-.32 1.727zm76.434-11.14h3.785c.293 0 .536.106.723.321.186.201.283.443.283.726v16.732a.985.985 0 0 1-.288.714.97.97 0 0 1-.718.292h-3.785a.973.973 0 0 1-.691-.287.932.932 0 0 1-.309-.719v-.493c-.441.511-1.018.95-1.742 1.31-.964.474-2.09.715-3.346.715a9.145 9.145 0 0 1-3.493-.689 9.105 9.105 0 0 1-2.981-2.011c-.857-.864-1.551-1.926-2.073-3.133-.523-1.22-.786-2.6-.786-4.102 0-1.503.263-2.889.786-4.1.522-1.214 1.225-2.263 2.091-3.12a9.196 9.196 0 0 1 3.004-1.986 9.124 9.124 0 0 1 3.492-.692c1.257 0 2.371.237 3.326.719.711.357 1.288.795 1.722 1.308v-.458c0-.283.102-.53.304-.742.207-.199.437-.305.696-.305zm-2.225 12.56c.383-.393.685-.866.897-1.42a4.71 4.71 0 0 0 .328-1.726 4.72 4.72 0 0 0-.328-1.754 4.331 4.331 0 0 0-.897-1.4 4.413 4.413 0 0 0-1.343-.948 3.955 3.955 0 0 0-1.692-.36 4.02 4.02 0 0 0-1.675.36c-.52.24-.979.556-1.362.949a4.36 4.36 0 0 0-.894 1.399 4.756 4.756 0 0 0-.319 1.754c0 .594.105 1.177.319 1.727.216.553.518 1.035.894 1.42.383.397.842.713 1.362.953.523.237 1.085.36 1.675.36.62 0 1.182-.123 1.692-.36.515-.24.968-.556 1.343-.954zm24.642-1.012l2.172 1.647c.26.204.446.457.561.76.117.32.095.653-.09.988-.797 1.27-1.925 2.32-3.366 3.134-1.436.821-3.154 1.234-5.082 1.234-1.393 0-2.726-.257-3.94-.766a10.145 10.145 0 0 1-3.206-2.104 9.477 9.477 0 0 1-2.128-3.133 9.944 9.944 0 0 1-.777-3.894c0-1.379.266-2.694.777-3.908a9.385 9.385 0 0 1 2.128-3.16c.9-.886 1.979-1.589 3.206-2.1a10.17 10.17 0 0 1 3.94-.768c1.928 0 3.646.416 5.082 1.227 1.441.823 2.569 1.872 3.359 3.13.192.34.214.679.097 1.013-.115.326-.311.57-.572.746l-2.17 1.65c-.406.326-.795.416-1.142.28a2.089 2.089 0 0 1-.79-.569c-.538-.635-1.099-1.135-1.664-1.485-.556-.341-1.265-.518-2.114-.518a3.96 3.96 0 0 0-1.7.36 4.44 4.44 0 0 0-1.344.949 3.983 3.983 0 0 0-.879 1.399 4.945 4.945 0 0 0-.301 1.754c0 .599.099 1.171.301 1.713.208.531.503 1.013.879 1.415.382.412.828.726 1.337.952.511.226 1.083.339 1.707.339.848 0 1.567-.172 2.114-.511.565-.35 1.126-.852 1.659-1.485.225-.253.487-.445.795-.57.34-.14.737-.05 1.151.28zm-76.437-11.548h4.242c.577 0 .824.262.93.484.129.291.129.648-.013 1.08l-6.232 20.157c-.557 1.77-1.471 3.19-2.709 4.231-1.247 1.051-2.868 1.57-4.809 1.57-1.149 0-2.229-.169-3.207-.515-.988-.348-1.826-.834-2.494-1.457-.354-.308-.66-.861-.108-1.709l1.348-1.964c.26-.396.579-.6.95-.6h.046c.348.017.671.123.954.32.295.223.628.413.997.583.365.16.741.246 1.138.246a2.03 2.03 0 0 0 1.258-.41c.365-.268.646-.67.827-1.184l.542-1.52.187-.527h-2.27c-.331 0-.599-.095-.801-.287a1.527 1.527 0 0 1-.414-.647l-5.373-16.287c-.11-.368-.11-.725.007-1.028.133-.355.49-.536 1.06-.536h4.393c.315 0 .574.122.755.346.15.203.263.434.319.687l3.366 11.57h.766l3.127-11.575c.059-.253.185-.492.372-.691.2-.215.491-.337.846-.337z" fill="#fff"/></svg>
